X: 1
T: Donal O'Connor's
M: 12/8
L: 1/8
R: slide
K: Gmaj
|: G2 A | 
B>cB cBA G2 E D2 G | EFG A2 B c3 cBA | 
B2 B cBA G2 E D3 | EFG AGF G3 :|
|: GFE | 
D2 B B^AB d2 B B=AG | D2 G A2 B c3 AFE |
D2 B B^AB d2 B B=AG | ABA DFA G3 :|
